resources/haticons/SVG/file_copy.svg

<!-- Generated by IcoMoon.io -->
<svg version="1.1" xmlns="http://www.w3.org/2000/svg" width="24" height="24" viewBox="0 0 24 24">
<title>file_copy</title>
<path d="M14.016 12h5.484l-5.484-5.484v5.484zM15 5.016l6 6v9.984q0 0.797-0.609 1.406t-1.406 0.609h-11.016q-0.797 0-1.383-0.609t-0.586-1.406v-14.016q0-0.797 0.609-1.383t1.406-0.586h6.984zM15.984 0.984v2.016h-12v14.016h-1.969v-14.016q0-0.797 0.586-1.406t1.383-0.609h12z"></path>
</svg>

<svg xmlns="http://www.w3.org/2000/svg" width="24" height="24"><path d="M14.016 12H19.5l-5.484-5.484V12zM15 5.016l6 6V21q0 .797-.609 1.406t-1.406.609H7.969q-.797 0-1.383-.609T6 21V6.984q0-.797.609-1.383t1.406-.586h6.984zm.984-4.032V3h-12v14.016H2.015V3q0-.797.586-1.406T3.984.985h12z"/></svg>
